fonts/icomoon.svg

<?xml version="1.0" standalone="no"?>
<!DOCTYPE svg PUBLIC "-//W3C//DTD SVG 1.1//EN" "http://www.w3.org/Graphics/SVG/1.1/DTD/svg11.dtd" >
<svg xmlns="http://www.w3.org/2000/svg">
<metadata>
This is a custom SVG font generated by IcoMoon.
<iconset grid="16"></iconset>
</metadata>
<defs>
<font id="icomoon" horiz-adv-x="512" >
<font-face units-per-em="512" ascent="480" descent="-32" />
<missing-glyph horiz-adv-x="512" />
<glyph class="hidden" unicode="&#xf000;" d="M0,480L 512 -32L0 -32 z" horiz-adv-x="0" />
<glyph unicode="&#xe002;" d="M 32.656,447.344  m0,0,0-15.344 0-416 0-15.344 15.344,0 416,0 15.344,0 0,15.344 0,416 0,15.344 -15.344,0 -416,0 -15.344,0 z m 30.688-30.688 385.313,0 0-385.313 -385.313,0 0,385.313 zM 191.281,436.75  m0,0,-30.563-9.5 c 27.16-87.529 45.016-109.338 63.688-190.813 l 0.125-0.531 0.156-0.5 c 9.299-31 30.365-72.312 50.656-113.938 20.291-41.625 39.657-83.743 45-108.813 l 31.313,6.688 C 344.714,51.921 324.535,93.631 304.125,135.5 c -20.34,41.725 -41.043,83.41 -48.719,108.813 -19.313,83.903 -37.795,107.585 -64.125,192.438 zM 463.781,384  m0,0,c -16.445-0.233 -31.89-4.274 -45.875-9.125 l -0.125-0.031 -0.094-0.063 c -32.119-11.693 -52.418-37.906 -76.219-58.75 l -0.031,0 -0.031-0.031 c -18.866-16.641 -53.766-35.834 -78.25-45.969 l -0.375-0.156 -0.344-0.188 c -7.286-3.45 -21.98-5.715 -34.156-18.781 l 23.438-21.813 c 2.973,3.19 11.733,5.788 23.688,11.375 0.025,0.012 0.038,0.020 0.063,0.031 0.204,0.085 0.451,0.196 0.656,0.281 27.297,11.368 62.667,30.264 86.406,51.188 0.018,0.015 0.045,0.016 0.063,0.031 26.299,23.039 45.344,45.187 66.031,52.719 12.113,4.184 24.29,7.121 35.594,7.281 l -0.438,32 z"  />
<glyph unicode="&#xe001;" d="M 336,16  m0,0,c -6.244,25.364 -41.238,65.634 -60.656,105.469 -20.291,41.625 -41.357,82.938 -50.656,113.938 l -0.156,0.5 -0.125,0.531 C 205.734,317.912 187.16,344.471 160,432 96,432 65.014,432 48,432 l 0-416 z"  />
<glyph unicode="&#x20;" horiz-adv-x="256" />
</font></defs></svg>

<?xml version="1.0" standalone="no"?>
<!DOCTYPE svg PUBLIC "-//W3C//DTD SVG 1.1//EN" "http://www.w3.org/Graphics/SVG/1.1/DTD/svg11.dtd" >
<svg xmlns="http://www.w3.org/2000/svg">
<metadata>
This is a custom SVG font generated by IcoMoon.
<iconset grid="16"></iconset>
</metadata>
<defs>
<font id="icomoon" horiz-adv-x="512" >
<font-face units-per-em="512" ascent="480" descent="-32" />
<missing-glyph horiz-adv-x="512" />
<glyph class="hidden" unicode="&#xf000;" d="M0,480L 512 -32L0 -32 z" horiz-adv-x="0" />
<glyph unicode="&#xe000;" d="M 32.656,447.344 L 32.656,432 L 32.656,16 L 32.656,0.656 L 48,0.656 L 464,0.656 L 479.344,0.656 L 479.344,16 L 479.344,432 L 479.344,447.344 L 464,447.344 L 48,447.344 L 32.656,447.344 z M 63.344,416.656 L 164.063,416.656 C 189.364,337.819 206.513,314.515 224.406,236.437 L 224.531,235.906 L 224.688,235.406 C 233.986,204.407 255.053,163.094 275.344,121.469 C 291.209,88.922 306.464,56.108 314.938,31.344 L 63.344,31.344 L 63.344,416.656 z M 197.75,416.656 L 448.656,416.656 L 448.656,382.75 C 437.811,381.155 427.521,378.21 417.906,374.875 L 417.781,374.844 L 417.688,374.781 C 385.569,363.088 365.27,336.875 341.469,316.031 L 341.438,316.031 L 341.406,316 C 322.54,299.359 287.64,280.166 263.156,270.031 L 262.781,269.875 L 262.438,269.687 C 259.433,268.265 255.141,267.048 250.313,265.187 C 234.389,326.636 218.509,354.196 197.75,416.656 z M 448.656,350.25 L 448.656,31.344 L 348.656,31.344 C 339.928,61.849 322.108,98.61 304.125,135.5 C 286.475,171.707 268.573,207.873 259.125,233.406 C 263.329,235.26 268.865,237.412 275.406,240.469 C 275.431,240.48 275.444,240.488 275.469,240.5 C 275.673,240.585 275.92,240.696 276.125,240.781 C 303.422,252.149 338.792,271.046 362.531,291.969 C 362.549,291.984 362.576,291.985 362.594,292 C 388.893,315.039 407.938,337.187 428.625,344.719 C 435.338,347.038 442.063,348.958 448.656,350.25 z "  />
<glyph unicode="&#xe001;" d="M 336,16  m0,0,c -6.244,25.364 -41.238,65.634 -60.656,105.469 -20.291,41.625 -41.357,82.938 -50.656,113.938 l -0.156,0.5 -0.125,0.531 C 205.734,317.912 187.16,344.471 160,432 96,432 65.014,432 48,432 l 0-416 z"  />
<glyph unicode="&#x20;" horiz-adv-x="256" />
</font></defs></svg>
